icon-svg/ascaso-steel-duo.svg

<svg xmlns="http://www.w3.org/2000/svg" viewBox="0 0 24 24"><path fill="#44739e" d="M14.847 2.969c-1.853.186-3.732.229-5.591.344-1.031.064-2.187.287-3.214.189-.539-.052-1.063-.351-1.595-.456-.017-.234-.298-.49-.472-.208-.117.191-.067.583-.068.802-.57.011-.496.435-.507.881-.02.843-.051 1.687-.077 2.531-.021.671-.064 1.343-.065 2.014 0 .202-.086.549.075.706.212.206.754.033 1.024.068.124.016.17.183.299.226.357.12.749.151 1.1.285.286.108.154.407.313.588.098.111.399.053.535.053.008.459-.514.468-.903.589q-.93.29-1.86.584c-.291.092-.663.153-.89.371-.578.557-.116 1.724.692 1.723.343-.001.689-.242.991-.383a93 93 0 0 0 2.113-1.024c.244 1.628.221 3.297.429 4.931-1.056.105-2.108.33-3.159.485-.353.053-1.02.027-1.316.23-.158.109-.118.375-.108.539.025.39-.166 1.544.163 1.799.295.228 1.073.107 1.437.138.001.628 1.112.659 1.134.066 2.83.163 5.685.437 8.519.474.005.651 1.155.648 1.155-.011 1.23-.198 2.458-.641 3.665-.951.169-.043.43-.169.602-.141.281.045.498.276.817.1.163-.09.077-.267.189-.361.277-.231.86-.067 1.082-.388.14-.204.062-.619.062-.857 0-.73-.011-1.46-.011-2.19 0-2.81-.055-5.62-.055-8.43 0-.694-.026-1.387-.033-2.08-.003-.267.073-.67-.051-.914-.086-.169-.294-.208-.456-.275.027-.181.078-.597-.092-.718-.145-.103-.238.056-.373.031-.256-.048-.525-.206-.767-.301-1.089-.427-2.166-.886-3.258-1.306-.263-.102-.651-.184-.871-.361-.144-.115-.097-.435-.394-.345-.292.088-.209.717-.21.953m5.305 1.508c-1.647-.017-3.211-1.022-4.777-1.53l.011-.385c1.016.306 2.009.796 2.994 1.192.561.225 1.267.392 1.772.723m-4.876-1.343.011.011c-.199 2.123.078 4.297-.165 6.416-2.773 0-5.547.066-8.32.066-.781 0-1.563.022-2.344.022-.269 0-.713.087-.962-.011-.177-.069-.031-1.081-.029-1.265.014-1.137.037-2.288.106-3.423.013-.205-.087-.963.091-1.083.187-.127.648-.063.871-.078.77-.052 1.54-.095 2.311-.14 2.782-.161 5.67-.136 8.43-.515m3.28 17.246c-.101-.691-.007-1.426-.047-2.124-.109-1.911-.202-3.823-.303-5.734-.034-.642-.08-1.284-.101-1.926-.01-.295.012-.656-.223-.875-.201-.188-.451-.137-.702-.154-.618-.041-1.251-.006-1.871-.006.095-2.088-.136-4.317.165-6.383 1.388.505 2.762 1.054 4.139 1.587.339.131 1.284.309 1.485.61.122.183.044.697.044.918.003.788.02 1.577.023 2.366.009 2.67.054 5.341.054 8.012 0 .672-.037 1.355.004 2.025.014.232.098.738-.021.941-.091.155-.522.194-.687.235-.654.165-1.306.34-1.959.508M4.447 3.233c.325.118.683.234 1.023.297v.011l-1.045.066Zm9.279.857c-.28.049.205.63.382.601.279-.046-.209-.631-.382-.601m.263.078v.023c.141.114.359.141.426.33.08.224-.155.517-.393.402-.18-.086-.175-.318-.32-.446-.005.112-.015.22.019.33.359 1.132 1.559-.923.268-.639m-1.672.009c-.272.055.211.638.393.593.265-.067-.229-.627-.393-.593m.274.069c.103.164.33.147.406.341.088.224-.128.517-.372.407-.169-.075-.191-.294-.298-.429-.152.365.246.766.605.563.498-.283.177-.959-.341-.882m-1.53.198c.173.069.359-.037.496.123.165.193.028.571-.254.524-.155-.025-.237-.195-.385-.251l-.011.011a.6.6 0 0 0 .149.289c.907.877.835-1.619.005-.696m-1.497.341c.151-.048.253-.221.408-.234.278-.024.372.352.202.526-.136.139-.323.05-.489.115v.022c1.035.716.743-1.475.007-.69a.6.6 0 0 0-.128.261m1.271-.298c-.269.126.345.469.507.388.274-.137-.355-.459-.507-.388m-5.904.128c-1.319.108-1.308 2.365.055 2.255 1.317-.107 1.305-2.367-.055-2.255m15.452.027v.22l-.451-.176Zm-10.478.11c-.189.02-.676.413-.297.387.207-.015.654-.425.297-.387m-4.974.083c1.075-.09 1.094 1.725.066 1.817-1.098.098-1.133-1.729-.066-1.817m-.022.269c.142-.052.006-.273 0 0m.539.011c-.052.057-.103.106-.077.187h.011c.047-.059.088-.11.066-.187m-.99.103c-.036.017.03.108.066.085.034-.022-.033-.099-.066-.085m12.799-.004c-1.168.17-1.196 2.52.044 2.52-.743-.701-.447-1.76-.044-2.52m.254.102c-.25-.012-.379.284-.439.481-.12.397-.23 1.81.439 1.83.24.007.375-.284.435-.476.122-.39.214-1.804-.435-1.835M4.48 6.249c.316-.191.492-.463.726-.716-.234-.201-.621.562-.726.716m1.034-.584-.011.088c.082 0 .153.003.176-.088ZM4.37 5.72c-.265.041-.008.139 0 0m9.751.047c-.248.035-.199.434.055.396.25-.038.193-.432-.055-.396m-1.42.069c-.241.071-.148.455.098.386.243-.068.144-.458-.098-.386m-1.365.055c-.247.051-.173.457.077.398.238-.057.165-.448-.077-.398m-1.385.064c-.238.066-.145.454.097.388.245-.066.15-.457-.097-.388m9.82 1.489c-.163.068-.07.552-.07.698 0 .738.013 1.485.046 2.223.095 2.166.085 4.337.151 6.504.017.579.003 1.162.04 1.739.011.161-.047.468.047.605.104.151.767-.094.915-.148.244-.091.144-.486.143-.688-.002-.694-.011-1.387-.011-2.08 0-2.359-.044-4.718-.044-7.077 0-.32.159-1.402-.067-1.628-.123-.124-.502-.104-.67-.124-.135-.016-.351-.079-.48-.024m-9.546.579c-.307.078-.194.569.12.491.304-.075.185-.568-.12-.491m-.54.339-.11.022c.059.156.364.235.405.021.01-.051-.363-.414-.108-.219l.1-.011c-.048-.159-.331-.222-.369-.021 0 .002.349.487.082.208m-.286.143c.019.058.074.038.121.022l-.011-.484c-.041 0-.099-.016-.11.033-.494-.147-.447.628 0 .429m-.407-.11c-.431.011-.392-.126 0-.176-.137-.247-.502-.17-.468.132.03.269.369.257.468.044m-.825.011-.1.022c.061.158.358.229.393.011.005-.029-.342-.421-.106-.209.236-.075-.308-.305-.262.01.013.085.253.152.229.202-.032.065-.125-.01-.154-.036m-.265.143c.01.046.059.033.099.033v-.495c-.049 0-.1-.009-.121.044-.414-.206-.486.618.022.418m2.347-.401c.157-.056.215.202.072.25-.154.053-.22-.197-.072-.25m-1.002.023c.152-.034.195.215.05.251-.155.039-.204-.217-.05-.251m-1.498.044c.153-.028.179.233.031.254-.152.022-.176-.227-.031-.254m4.502.023c-.24.092-.095.46.141.366.234-.093.093-.456-.141-.366m6.052 9.908c-3.647-.032-7.293-.374-10.94-.374-.128-1.097-.188-2.203-.287-3.302-.045-.496-.217-1.16-.133-1.648.059-.344.787-.294.849-.817.314-.105.596-.499.176-.706-.288-.141-.85-.133-1.166-.076l-.022-.308c1.336-.195 2.841-.055 4.193-.055.43 0 1.291.151 1.675-.038.1-.049.064-.296.092-.39.085-.279.269-.287.269-.673h.154c.002.384-.101.644-.176 1.013.28-.038.59-.038.87 0-.003-.346-.177-.648-.177-1.013h.727c0 .244-.066.645.068.858.168.267.844.261 1.005-.011.135-.229.049-.603.049-.858.529 0 1.057.012 1.585.012.199 0 .486-.053.644.096.367.345.199 1.61.232 2.094.141 2.049.312 4.142.313 6.196m-5.305-7.297c0 .178-.055.472.033.632.272.496 1.278-.2.805-.618-.139-.123-.664-.036-.838-.014m1.75.11.132 1.574c-.582-.144-.79.546-.835 1.002-.073.729.068 1.594.029 2.366-.018.372-.223.802-.151 1.166.077.391.556.495.72.099.138-.331-.08-.694-.062-1.034.017-.352.023-.705.034-1.057.018-.595.138-1.04.232-1.595.339.078.469-.292.507-.562.093-.677-.113-1.302-.122-1.97Zm-7.407.121v.099c.594-.101 1.401.129.826.859.56.135 1.867.201 2.273-.323.134-.172.104-.473.104-.679Zm-3.049 2.752-.011-.011c.186-.567-.041-1.116-.561-1.409.668-.32 1.473-.473 2.179-.694.374-.118.822-.349 1.211-.378.368-.028.569.49.467.786-.094.273-.62.42-.863.533-.811.379-1.626.762-2.422 1.173m4.161-1.563v.132c.322.017 1.273.53.994.981-.101.164-.213-.109-.235-.178-.221-.672-1.048-1.095-1.637-.562-.251.226-.578.88-.226 1.165.101.082.705-.465.95-.479.267-.016.526.096.726.269.098.084.223.304.362.31.162.006.209-.277.218-.394.03-.411-.173-.826-.173-1.255a7 7 0 0 1-.979.011m-5.041.272c.774-.033 1.103 1.48.242 1.52-.796.037-1.113-1.483-.242-1.52m11.281 1.247c-.184-.155-.338-.189-.55-.066.003-.324.064-.715.284-.967.15-.171.451-.224.537.042.079.245-.249.702-.271.991m2.928 4.523v.011c-.93.158-1.879.498-2.818.569-1.068.081-2.207-.084-3.28-.117-2.557-.078-5.113-.221-7.671-.287 1.104-.224 2.343-.484 3.467-.536 1.71-.079 3.483.119 5.195.183 1.685.062 3.431-.015 5.107.177m.704.055c0 .499.022.998.022 1.497 0 .145.069.421-.009.548-.098.159-.682.208-.861.255-.845.226-1.693.45-2.542.661-.073-.53-.033-1.116-.033-1.651 0-.139-.06-.465.025-.579.118-.156.699-.177.889-.216.836-.169 1.678-.323 2.509-.515m-3.61.716.022 2.278c-.91.047-1.864-.09-2.773-.141-1.776-.099-3.551-.207-5.327-.298-.852-.043-1.702-.098-2.554-.144-.342-.019-.844.046-1.163-.08-.151-.059-.102-.321-.102-.449-.002-.341-.211-1.272-.017-1.55.088-.126.561-.028.699-.024.715.019 1.431.07 2.146.077 3.015.031 6.059.158 9.069.331"/></svg>

<svg xmlns="http://www.w3.org/2000/svg" viewBox="0 0 24 24"><path d="M14.847 2.969C12.994 3.155 11.115 3.198 9.256 3.313 8.225 3.377 7.069 3.6 6.042 3.502 5.503 3.45 4.979 3.151 4.447 3.046 4.43 2.812 4.149 2.556 3.975 2.838 3.858 3.029 3.908 3.421 3.907 3.64 3.337 3.651 3.411 4.075 3.4 4.521 3.38 5.364 3.349 6.208 3.323 7.052 3.302 7.723 3.259 8.395 3.258 9.066 3.258 9.268 3.172 9.615 3.333 9.772 3.545 9.978 4.087 9.805 4.357 9.84 4.481 9.856 4.527 10.023 4.656 10.066 5.013 10.186 5.405 10.217 5.756 10.351 6.042 10.459 5.91 10.758 6.069 10.939 6.167 11.05 6.468 10.992 6.604 10.992 6.612 11.451 6.09 11.46 5.701 11.581 5.081 11.774 4.461 11.97 3.841 12.165 3.55 12.257 3.178 12.318 2.951 12.536 2.373 13.093 2.835 14.26 3.643 14.259 3.986 14.258 4.332 14.017 4.634 13.876 5.342 13.545 6.047 13.201 6.747 12.852 6.991 14.48 6.968 16.149 7.176 17.783 6.12 17.888 5.068 18.113 4.017 18.268 3.664 18.321 2.997 18.295 2.701 18.498 2.543 18.607 2.583 18.873 2.593 19.037 2.618 19.427 2.427 20.581 2.756 20.836 3.051 21.064 3.829 20.943 4.193 20.974 4.194 21.602 5.305 21.633 5.327 21.04 8.157 21.203 11.012 21.477 13.846 21.514 13.851 22.165 15.001 22.162 15.001 21.503 16.231 21.305 17.459 20.862 18.666 20.552 18.835 20.509 19.096 20.383 19.268 20.411 19.549 20.456 19.766 20.687 20.085 20.511 20.248 20.421 20.162 20.244 20.274 20.15 20.551 19.919 21.134 20.083 21.356 19.762 21.496 19.558 21.418 19.143 21.418 18.905 21.418 18.175 21.407 17.445 21.407 16.715 21.407 13.905 21.352 11.095 21.352 8.285 21.352 7.591 21.326 6.898 21.319 6.205 21.316 5.938 21.392 5.535 21.268 5.291 21.182 5.122 20.974 5.083 20.812 5.016 20.839 4.835 20.89 4.419 20.72 4.298 20.575 4.195 20.482 4.354 20.347 4.329 20.091 4.281 19.822 4.123 19.58 4.028 18.491 3.601 17.414 3.142 16.322 2.722 16.059 2.62 15.671 2.538 15.451 2.361 15.307 2.246 15.354 1.926 15.057 2.016 14.765 2.104 14.848 2.733 14.847 2.969M20.152 4.477C18.505 4.46 16.941 3.455 15.375 2.947L15.386 2.562C16.402 2.868 17.395 3.358 18.38 3.754 18.941 3.979 19.647 4.146 20.152 4.477M15.276 3.134L15.287 3.145C15.088 5.268 15.365 7.442 15.122 9.561 12.349 9.561 9.575 9.627 6.802 9.627 6.021 9.627 5.239 9.649 4.458 9.649 4.189 9.649 3.745 9.736 3.496 9.638 3.319 9.569 3.465 8.557 3.467 8.373 3.481 7.236 3.504 6.085 3.573 4.95 3.586 4.745 3.486 3.987 3.664 3.867 3.851 3.74 4.312 3.804 4.535 3.789 5.305 3.737 6.075 3.694 6.846 3.649 9.628 3.488 12.516 3.513 15.276 3.134M18.556 20.38C18.455 19.689 18.549 18.954 18.509 18.256 18.4 16.345 18.307 14.433 18.206 12.522 18.172 11.88 18.126 11.238 18.105 10.596 18.095 10.301 18.117 9.94 17.882 9.721 17.681 9.533 17.431 9.584 17.18 9.567 16.562 9.526 15.929 9.561 15.309 9.561 15.404 7.473 15.173 5.244 15.474 3.178 16.862 3.683 18.236 4.232 19.613 4.765 19.952 4.896 20.897 5.074 21.098 5.375 21.22 5.558 21.142 6.072 21.142 6.293 21.145 7.081 21.162 7.87 21.165 8.659 21.174 11.329 21.219 14 21.219 16.671 21.219 17.343 21.182 18.026 21.223 18.696 21.237 18.928 21.321 19.434 21.202 19.637 21.111 19.792 20.68 19.831 20.515 19.872 19.861 20.037 19.209 20.212 18.556 20.38M4.447 3.233C4.772 3.351 5.13 3.467 5.47 3.53V3.541L4.425 3.607 4.447 3.233M13.726 4.09C13.446 4.139 13.931 4.72 14.108 4.691 14.387 4.645 13.899 4.06 13.726 4.09M13.989 4.168V4.191C14.13 4.305 14.348 4.332 14.415 4.521 14.495 4.745 14.26 5.038 14.022 4.923 13.842 4.837 13.847 4.605 13.702 4.477 13.697 4.589 13.687 4.697 13.721 4.807 14.08 5.939 15.28 3.884 13.989 4.168M12.317 4.177C12.045 4.232 12.528 4.815 12.71 4.77 12.975 4.703 12.481 4.143 12.317 4.177M12.591 4.246C12.694 4.41 12.921 4.393 12.997 4.587 13.085 4.811 12.869 5.104 12.625 4.994 12.456 4.919 12.434 4.7 12.327 4.565 12.175 4.93 12.573 5.331 12.932 5.128 13.43 4.845 13.109 4.169 12.591 4.246M11.061 4.444C11.234 4.513 11.42 4.407 11.557 4.567 11.722 4.76 11.585 5.138 11.303 5.091 11.148 5.066 11.066 4.896 10.918 4.84L10.907 4.851C10.938 4.958 10.974 5.06 11.056 5.14 11.963 6.017 11.891 3.521 11.061 4.444M9.564 4.785C9.715 4.737 9.817 4.564 9.972 4.551 10.25 4.527 10.344 4.903 10.174 5.077 10.038 5.216 9.851 5.127 9.685 5.192V5.214C10.72 5.93 10.428 3.739 9.692 4.524 9.622 4.598 9.589 4.688 9.564 4.785M10.835 4.487C10.566 4.613 11.18 4.956 11.342 4.875 11.616 4.738 10.987 4.416 10.835 4.487M4.931 4.615C3.612 4.723 3.623 6.98 4.986 6.87 6.303 6.763 6.291 4.503 4.931 4.615M20.383 4.642V4.862L19.932 4.686 20.383 4.642M9.905 4.752C9.716 4.772 9.229 5.165 9.608 5.139 9.815 5.124 10.262 4.714 9.905 4.752M4.931 4.835C6.006 4.745 6.025 6.56 4.997 6.652 3.899 6.75 3.864 4.923 4.931 4.835M4.909 5.104C5.051 5.052 4.915 4.831 4.909 5.104M5.448 5.115C5.396 5.172 5.345 5.221 5.371 5.302H5.382C5.429 5.243 5.47 5.192 5.448 5.115M4.458 5.218C4.422 5.235 4.488 5.326 4.524 5.303 4.558 5.281 4.491 5.204 4.458 5.218M17.257 5.214C16.089 5.384 16.061 7.734 17.301 7.734 16.558 7.033 16.854 5.974 17.257 5.214M17.511 5.316C17.261 5.304 17.132 5.6 17.072 5.797 16.952 6.194 16.842 7.607 17.511 7.627 17.751 7.634 17.886 7.343 17.946 7.151 18.068 6.761 18.16 5.347 17.511 5.316M4.48 6.249C4.796 6.058 4.972 5.786 5.206 5.533 4.972 5.332 4.585 6.095 4.48 6.249M5.514 5.665L5.503 5.753C5.585 5.753 5.656 5.756 5.679 5.665H5.514M4.37 5.72C4.105 5.761 4.362 5.859 4.37 5.72M14.121 5.767C13.873 5.802 13.922 6.201 14.176 6.163 14.426 6.125 14.369 5.731 14.121 5.767M12.701 5.836C12.46 5.907 12.553 6.291 12.799 6.222 13.042 6.154 12.943 5.764 12.701 5.836M11.336 5.891C11.089 5.942 11.163 6.348 11.413 6.289 11.651 6.232 11.578 5.841 11.336 5.891M9.951 5.955C9.713 6.021 9.806 6.409 10.048 6.343 10.293 6.277 10.198 5.886 9.951 5.955M19.771 7.444C19.608 7.512 19.701 7.996 19.701 8.142 19.701 8.88 19.714 9.627 19.747 10.365 19.842 12.531 19.832 14.702 19.898 16.869 19.915 17.448 19.901 18.031 19.938 18.608 19.949 18.769 19.891 19.076 19.985 19.213 20.089 19.364 20.752 19.119 20.9 19.065 21.144 18.974 21.044 18.579 21.043 18.377 21.041 17.683 21.032 16.99 21.032 16.297 21.032 13.938 20.988 11.579 20.988 9.22 20.988 8.9 21.147 7.818 20.921 7.592 20.798 7.468 20.419 7.488 20.251 7.468 20.116 7.452 19.9 7.389 19.771 7.444M10.225 8.023C9.918 8.101 10.031 8.592 10.345 8.514 10.649 8.439 10.53 7.946 10.225 8.023M9.685 8.362L9.575 8.384C9.634 8.54 9.939 8.619 9.98 8.405 9.99 8.354 9.617 7.991 9.872 8.186L9.972 8.175C9.924 8.016 9.641 7.953 9.603 8.154 9.603 8.156 9.952 8.641 9.685 8.362M9.399 8.505C9.418 8.563 9.473 8.543 9.52 8.527L9.509 8.043C9.468 8.043 9.41 8.027 9.399 8.076 8.905 7.929 8.952 8.704 9.399 8.505M8.992 8.395C8.561 8.406 8.6 8.269 8.992 8.219 8.855 7.972 8.49 8.049 8.524 8.351 8.554 8.62 8.893 8.608 8.992 8.395M8.167 8.406L8.067 8.428C8.128 8.586 8.425 8.657 8.46 8.439 8.465 8.41 8.118 8.018 8.354 8.23 8.59 8.155 8.046 7.925 8.092 8.24 8.105 8.325 8.345 8.392 8.321 8.442 8.289 8.507 8.196 8.432 8.167 8.406M7.902 8.549C7.912 8.595 7.961 8.582 8.001 8.582V8.087C7.952 8.087 7.901 8.078 7.88 8.131 7.466 7.925 7.394 8.749 7.902 8.549M10.249 8.148C10.406 8.092 10.464 8.35 10.321 8.398 10.167 8.451 10.101 8.201 10.249 8.148M9.247 8.171C9.399 8.137 9.442 8.386 9.297 8.422 9.142 8.461 9.093 8.205 9.247 8.171M7.749 8.215C7.902 8.187 7.928 8.448 7.78 8.469 7.628 8.491 7.604 8.242 7.749 8.215M12.251 8.238C12.011 8.33 12.156 8.698 12.392 8.604 12.626 8.511 12.485 8.148 12.251 8.238M18.303 18.146C14.656 18.114 11.01 17.772 7.363 17.772 7.235 16.675 7.175 15.569 7.076 14.47 7.031 13.974 6.859 13.31 6.943 12.822 7.002 12.478 7.73 12.528 7.792 12.005 8.106 11.9 8.388 11.506 7.968 11.299 7.68 11.158 7.118 11.166 6.802 11.223L6.78 10.915C8.116 10.72 9.621 10.86 10.973 10.86 11.403 10.86 12.264 11.011 12.648 10.822 12.748 10.773 12.712 10.526 12.74 10.432 12.825 10.153 13.009 10.145 13.009 9.759H13.163C13.165 10.143 13.062 10.403 12.987 10.772 13.267 10.734 13.577 10.734 13.857 10.772 13.854 10.426 13.68 10.124 13.68 9.759H14.407C14.407 10.003 14.341 10.404 14.475 10.617 14.643 10.884 15.319 10.878 15.48 10.606 15.615 10.377 15.529 10.003 15.529 9.748 16.058 9.748 16.586 9.76 17.114 9.76 17.313 9.76 17.6 9.707 17.758 9.856 18.125 10.201 17.957 11.466 17.99 11.95 18.131 13.999 18.302 16.092 18.303 18.146M12.998 10.849C12.998 11.027 12.943 11.321 13.031 11.481 13.303 11.977 14.309 11.281 13.836 10.863 13.697 10.74 13.172 10.827 12.998 10.849M14.748 10.959L14.88 12.533C14.298 12.389 14.09 13.079 14.045 13.535 13.972 14.264 14.113 15.129 14.074 15.901 14.056 16.273 13.851 16.703 13.923 17.067 14 17.458 14.479 17.562 14.643 17.166 14.781 16.835 14.563 16.472 14.581 16.132 14.598 15.78 14.604 15.427 14.615 15.075 14.633 14.48 14.753 14.035 14.847 13.48 15.186 13.558 15.316 13.188 15.354 12.918 15.447 12.241 15.241 11.616 15.232 10.948L14.748 10.959M7.341 11.08V11.179C7.935 11.078 8.742 11.308 8.167 12.038 8.727 12.173 10.034 12.239 10.44 11.715 10.574 11.543 10.544 11.242 10.544 11.036L7.341 11.08M4.292 13.832L4.281 13.821C4.467 13.254 4.24 12.705 3.72 12.412 4.388 12.092 5.193 11.939 5.899 11.718 6.273 11.6 6.721 11.369 7.11 11.34 7.478 11.312 7.679 11.83 7.577 12.126 7.483 12.399 6.957 12.546 6.714 12.659 5.903 13.038 5.088 13.421 4.292 13.832M8.453 12.269V12.401C8.775 12.418 9.726 12.931 9.447 13.382 9.346 13.546 9.234 13.273 9.212 13.204 8.991 12.532 8.164 12.109 7.575 12.642 7.324 12.868 6.997 13.522 7.349 13.807 7.45 13.889 8.054 13.342 8.299 13.328 8.566 13.312 8.825 13.424 9.025 13.597 9.123 13.681 9.248 13.901 9.387 13.907 9.549 13.913 9.596 13.63 9.605 13.513 9.635 13.102 9.432 12.687 9.432 12.258 9.1 12.283 8.785 12.288 8.453 12.269M3.412 12.541C4.186 12.508 4.515 14.021 3.654 14.061 2.858 14.098 2.541 12.578 3.412 12.541M14.693 13.788C14.509 13.633 14.355 13.599 14.143 13.722 14.146 13.398 14.207 13.007 14.427 12.755 14.577 12.584 14.878 12.531 14.964 12.797 15.043 13.042 14.715 13.499 14.693 13.788M17.621 18.311V18.322C16.691 18.48 15.742 18.82 14.803 18.891 13.735 18.972 12.596 18.807 11.523 18.774 8.966 18.696 6.41 18.553 3.852 18.487 4.956 18.263 6.195 18.003 7.319 17.951 9.029 17.872 10.802 18.07 12.514 18.134 14.199 18.196 15.945 18.119 17.621 18.311M18.325 18.366C18.325 18.865 18.347 19.364 18.347 19.863 18.347 20.008 18.416 20.284 18.338 20.411 18.24 20.57 17.656 20.619 17.477 20.666 16.632 20.892 15.784 21.116 14.935 21.327 14.862 20.797 14.902 20.211 14.902 19.676 14.902 19.537 14.842 19.211 14.927 19.097 15.045 18.941 15.626 18.92 15.816 18.881 16.652 18.712 17.494 18.558 18.325 18.366M14.715 19.082L14.737 21.36C13.827 21.407 12.873 21.27 11.964 21.219 10.188 21.12 8.413 21.012 6.637 20.921 5.785 20.878 4.935 20.823 4.083 20.777 3.741 20.758 3.239 20.823 2.92 20.697 2.769 20.638 2.818 20.376 2.818 20.248 2.816 19.907 2.607 18.976 2.801 18.698 2.889 18.572 3.362 18.67 3.5 18.674 4.215 18.693 4.931 18.744 5.646 18.751 8.661 18.782 11.705 18.909 14.715 19.082Z" fill="#44739e"/></svg>
